svg/pushover.svg

<svg xmlns="http://www.w3.org/2000/svg" width="600" height="600" viewBox="0 0 600 600"><circle cx="216.308" cy="152.076" r="296.855" style="fill:#249df1;fill-rule:evenodd;stroke:#fff;stroke-width:0" transform="rotate(132.421 225.16 243.543)"/><path d="m280.949 172.514 74.48-9.8-72.52 163.66c12.74-.98 25.233-5.307 37.48-12.98 12.253-7.68 23.527-17.317 33.82-28.91 10.287-11.6 19.187-24.503 26.7-38.71 7.513-14.213 12.903-28.18 16.17-41.9 1.96-8.493 2.86-16.66 2.7-24.5-.167-7.84-2.21-14.7-6.13-20.58-3.92-5.88-9.883-10.617-17.89-14.21-8-3.593-18.86-5.39-32.58-5.39-16.007 0-31.77 2.613-47.29 7.84-15.513 5.227-29.887 12.823-43.12 22.79-13.227 9.96-24.74 22.373-34.54 37.24-9.8 14.86-16.823 31.763-21.07 50.71-1.633 6.207-2.613 11.187-2.94 14.94-.327 3.76-.407 6.863-.24 9.31.16 2.453.483 4.333.97 5.64a35.55 35.55 0 0 1 1.23 3.92c-16.66 0-28.83-3.35-36.51-10.05-7.673-6.693-9.55-18.37-5.63-35.03 3.92-17.313 12.823-33.81 26.71-49.49 13.88-15.68 30.373-29.483 49.48-41.41 19.113-11.92 40.02-21.39 62.72-28.41 22.707-7.027 44.84-10.54 66.4-10.54 18.947 0 34.87 2.693 47.77 8.08 12.907 5.393 22.953 12.5 30.14 21.32 7.187 8.82 11.677 19.11 13.47 30.87 1.8 11.76 1.23 24.01-1.71 36.75-3.593 15.353-10.373 30.79-20.34 46.31-9.96 15.513-22.453 29.56-37.48 42.14-15.027 12.573-32.26 22.78-51.7 30.62-19.433 7.84-40.093 11.76-61.98 11.76h-2.45l-62.23 139.65h-70.56z" style="fill:#fff;fill-rule:nonzero;white-space:pre"/></svg>

<?xml version="1.0" encoding="utf-8"?>
<svg width="600px" height="600px" viewBox="0 0 600 600" version="1.1" xmlns="http://www.w3.org/2000/svg">
  <g id="layer1" stroke="none" stroke-width="1">
    <ellipse style="fill: rgb(36, 157, 241); fill-rule: evenodd; stroke: rgb(255, 255, 255); stroke-width: 0;" transform="matrix(-0.674571, 0.73821, -0.73821, -0.674571, 556.833239, 241.613465)" cx="216.308" cy="152.076" rx="296.855" ry="296.855"/>
    <path d="M 280.949 172.514 L 355.429 162.714 L 282.909 326.374 L 282.909 326.374 C 295.649 325.394 308.142 321.067 320.389 313.394 L 320.389 313.394 L 320.389 313.394 C 332.642 305.714 343.916 296.077 354.209 284.484 L 354.209 284.484 L 354.209 284.484 C 364.496 272.884 373.396 259.981 380.909 245.774 L 380.909 245.774 L 380.909 245.774 C 388.422 231.561 393.812 217.594 397.079 203.874 L 397.079 203.874 L 397.079 203.874 C 399.039 195.381 399.939 187.214 399.779 179.374 L 399.779 179.374 L 399.779 179.374 C 399.612 171.534 397.569 164.674 393.649 158.794 L 393.649 158.794 L 393.649 158.794 C 389.729 152.914 383.766 148.177 375.759 144.584 L 375.759 144.584 L 375.759 144.584 C 367.759 140.991 356.899 139.194 343.179 139.194 L 343.179 139.194 L 343.179 139.194 C 327.172 139.194 311.409 141.807 295.889 147.034 L 295.889 147.034 L 295.889 147.034 C 280.376 152.261 266.002 159.857 252.769 169.824 L 252.769 169.824 L 252.769 169.824 C 239.542 179.784 228.029 192.197 218.229 207.064 L 218.229 207.064 L 218.229 207.064 C 208.429 221.924 201.406 238.827 197.159 257.774 L 197.159 257.774 L 197.159 257.774 C 195.526 263.981 194.546 268.961 194.219 272.714 L 194.219 272.714 L 194.219 272.714 C 193.892 276.474 193.812 279.577 193.979 282.024 L 193.979 282.024 L 193.979 282.024 C 194.139 284.477 194.462 286.357 194.949 287.664 L 194.949 287.664 L 194.949 287.664 C 195.442 288.971 195.852 290.277 196.179 291.584 L 196.179 291.584 L 196.179 291.584 C 179.519 291.584 167.349 288.234 159.669 281.534 L 159.669 281.534 L 159.669 281.534 C 151.996 274.841 150.119 263.164 154.039 246.504 L 154.039 246.504 L 154.039 246.504 C 157.959 229.191 166.862 212.694 180.749 197.014 L 180.749 197.014 L 180.749 197.014 C 194.629 181.334 211.122 167.531 230.229 155.604 L 230.229 155.604 L 230.229 155.604 C 249.342 143.684 270.249 134.214 292.949 127.194 L 292.949 127.194 L 292.949 127.194 C 315.656 120.167 337.789 116.654 359.349 116.654 L 359.349 116.654 L 359.349 116.654 C 378.296 116.654 394.219 119.347 407.119 124.734 L 407.119 124.734 L 407.119 124.734 C 420.026 130.127 430.072 137.234 437.259 146.054 L 437.259 146.054 L 437.259 146.054 C 444.446 154.874 448.936 165.164 450.729 176.924 L 450.729 176.924 L 450.729 176.924 C 452.529 188.684 451.959 200.934 449.019 213.674 L 449.019 213.674 L 449.019 213.674 C 445.426 229.027 438.646 244.464 428.679 259.984 L 428.679 259.984 L 428.679 259.984 C 418.719 275.497 406.226 289.544 391.199 302.124 L 391.199 302.124 L 391.199 302.124 C 376.172 314.697 358.939 324.904 339.499 332.744 L 339.499 332.744 L 339.499 332.744 C 320.066 340.584 299.406 344.504 277.519 344.504 L 277.519 344.504 L 275.069 344.504 L 212.839 484.154 L 142.279 484.154 L 280.949 172.514 Z" transform="matrix(1, 0, 0, 1, 0, 0)" style="fill: rgb(255, 255, 255); fill-rule: nonzero; white-space: pre;"/>
  </g>
</svg>
